component-icons/svg/navbar.svg

<?xml version="1.0" encoding="utf-8"?>
<!-- Generator: Adobe Illustrator 24.2.3, SVG Export Plug-In . SVG Version: 6.00 Build 0)  -->
<svg version="1.1" id="Layer_1" xmlns="http://www.w3.org/2000/svg" xmlns:xlink="http://www.w3.org/1999/xlink" x="0px" y="0px"
	 width="24px" height="24px" viewBox="0 0 24 24" enable-background="new 0 0 24 24" xml:space="preserve">
<path d="M6,10v2h10l2-2H6z M6,0H2v2h4V0z M16,0H8v2h8V0z M18,0v2h4V0H18z M6,16h6l2-2H6V16z M2,24h16l4-4V4H2V24z M4,6h16v13.2
	L17.2,22H4V6z"/>
</svg>

<svg id="Layer_1" data-name="Layer 1" xmlns="http://www.w3.org/2000/svg" viewBox="0 0 24 24">
  <defs>
    <style>
      .cls-1 {
        fill: gray;
      }
    </style>
  </defs>
  <title>navbar</title>
  <path class="cls-1" d="M6,10v2H16l2-2ZM6,0H2V2H6ZM16,0H8V2h8Zm2,0V2h4V0ZM6,16h6l2-2H6ZM2,24H18l4-4V4H2ZM4,6H20V19.17L17.17,22H4Z"/>
</svg>
